usr/share/icons/biglinux-icons-material/scalable/apps/kdenlive.svg

<svg width="24" height="24" viewBox="0 0 24 24" fill="none" xmlns="http://www.w3.org/2000/svg">
<path fill-rule="evenodd" clip-rule="evenodd" d="M9.59606 1.11359C9.71589 1.11487 9.83044 1.0996 9.9397 1.06779C11.3754 0.973736 12.8111 0.977551 14.2467 1.07924C15.5485 1.18066 16.8085 1.46308 18.0269 1.9265C20.0525 2.76044 21.4386 4.2069 22.1851 6.26586C22.6119 7.50549 22.864 8.78023 22.9411 10.09C23.0478 11.7348 23.0096 13.3758 22.8265 15.0133C22.6895 16.1642 22.3916 17.271 21.933 18.3336C21.0824 20.1761 19.704 21.447 17.7978 22.1463C16.2531 22.6683 14.6646 22.943 13.0325 22.9707C11.1966 23.0662 9.37914 22.9287 7.57998 22.5585C4.26839 21.8208 2.22559 19.8019 1.45158 16.5017C1.12311 15.0161 0.974199 13.5124 1.00483 11.9906C0.968176 10.3724 1.14 8.77708 1.52031 7.20472C2.33171 4.11908 4.2905 2.20701 7.39669 1.46852C8.12049 1.29157 8.85364 1.17326 9.59606 1.11359Z" fill="url(#paint0_radial_16_57)"/>
<g clip-path="url(#clip0_16_57)">
<path d="M10.4538 4.7971C10.21 4.46704 10.4456 4 10.856 4H13.879C14.2908 4 14.5261 4.46991 14.2794 4.79959L12.8217 6.74733C12.757 6.8338 12.722 6.93891 12.722 7.04692V19.6359C12.722 19.8372 12.5588 20.0004 12.3575 20.0004V20.0004C12.1562 20.0004 11.993 19.8372 11.993 19.6359V7.0452C11.993 6.93825 11.9587 6.83412 11.8952 6.7481L10.4538 4.7971Z" fill="#F38577" fill-opacity="0.992157"/>
<path d="M10.6385 8.83492H7.52707C7.389 8.83492 7.27707 8.94685 7.27707 9.08492V10.0912C7.27707 10.2292 7.389 10.3412 7.52707 10.3412H10.6385C10.7766 10.3412 10.8885 10.2292 10.8885 10.0912V9.08492C10.8885 8.94685 10.7766 8.83492 10.6385 8.83492Z" fill="#83B9F5"/>
<path d="M10.6386 11.4539H5.67117C5.5331 11.4539 5.42117 11.5658 5.42117 11.7039V12.7102C5.42117 12.8482 5.5331 12.9602 5.67117 12.9602H10.6386C10.7766 12.9602 10.8886 12.8482 10.8886 12.7102V11.7039C10.8886 11.5658 10.7766 11.4539 10.6386 11.4539Z" fill="#83B9F5"/>
<path d="M10.6383 14.0386H4.25C4.11193 14.0386 4 14.1505 4 14.2886V15.2948C4 15.4329 4.11193 15.5448 4.25 15.5448H10.6383C10.7764 15.5448 10.8883 15.4329 10.8883 15.2948V14.2886C10.8883 14.1505 10.7764 14.0386 10.6383 14.0386Z" fill="#83B9F5"/>
<path d="M10.6386 16.6396H6.42358C6.28551 16.6396 6.17358 16.7515 6.17358 16.8896V17.8959C6.17358 18.0339 6.28551 18.1459 6.42358 18.1459H10.6386C10.7767 18.1459 10.8886 18.0339 10.8886 17.8959V16.8896C10.8886 16.7515 10.7767 16.6396 10.6386 16.6396Z" fill="#83B9F5"/>
<path d="M13.9859 8.83603C13.7599 8.9105 13.8158 9.17437 13.8145 9.36919V17.5353C13.8158 17.7301 13.7599 17.994 13.9859 18.0684C14.1027 18.0684 14.0873 18.0491 14.439 17.82C14.7907 17.5908 19.8067 13.7151 19.8067 13.7151C19.8962 13.6422 20 13.5835 20 13.4521C20 13.3207 19.8961 13.2619 19.8067 13.1891C19.8067 13.1891 14.7907 9.31332 14.439 9.08421C14.0873 8.85509 14.1027 8.83603 13.9859 8.83603Z" fill="#527EB2"/>
</g>
<defs>
<radialGradient id="paint0_radial_16_57" cx="0" cy="0" r="1" gradientUnits="userSpaceOnUse" gradientTransform="translate(12 1) rotate(90) scale(22 22)">
<stop stop-color="#777777"/>
<stop offset="1" stop-color="#333333"/>
</radialGradient>
<clipPath id="clip0_16_57">
<rect x="4" y="4" width="16" height="16" rx="0.2" fill="white"/>
</clipPath>
</defs>
</svg>

<svg xmlns="http://www.w3.org/2000/svg" width="24" height="24" fill="none"><path fill="url(#a)" fill-rule="evenodd" d="M9.596 1.114c.12 0 .234-.014.344-.046a31.626 31.626 0 0 1 4.307.011c1.302.102 2.561.384 3.78.848 2.025.833 3.412 2.28 4.158 4.339.427 1.24.679 2.514.756 3.824a27.94 27.94 0 0 1-.114 4.923 11.88 11.88 0 0 1-.894 3.32c-.85 1.843-2.229 3.114-4.135 3.813a15.625 15.625 0 0 1-4.765.825 21.423 21.423 0 0 1-5.453-.413c-3.312-.737-5.354-2.756-6.128-6.056a19.047 19.047 0 0 1-.447-4.511 18.49 18.49 0 0 1 .515-4.786c.812-3.086 2.77-4.998 5.877-5.736a13.954 13.954 0 0 1 2.2-.355Z" clip-rule="evenodd"/><g clip-path="url(#b)"><path fill="#F38577" fill-opacity=".992" d="M10.454 4.797A.5.5 0 0 1 10.856 4h3.023a.5.5 0 0 1 .4.8l-1.457 1.947a.5.5 0 0 0-.1.3v12.589a.365.365 0 0 1-.729 0V7.046a.5.5 0 0 0-.098-.298l-1.441-1.95Z"/><path fill="#83B9F5" d="M10.639 8.835H7.527a.25.25 0 0 0-.25.25v1.006c0 .138.112.25.25.25h3.112a.25.25 0 0 0 .25-.25V9.085a.25.25 0 0 0-.25-.25ZM10.639 11.454H5.67a.25.25 0 0 0-.25.25v1.006c0 .138.112.25.25.25h4.968a.25.25 0 0 0 .25-.25v-1.006a.25.25 0 0 0-.25-.25ZM10.638 14.039H4.25a.25.25 0 0 0-.25.25v1.006c0 .138.112.25.25.25h6.388a.25.25 0 0 0 .25-.25v-1.006a.25.25 0 0 0-.25-.25ZM10.639 16.64H6.424a.25.25 0 0 0-.25.25v1.006c0 .138.112.25.25.25h4.215a.25.25 0 0 0 .25-.25V16.89a.25.25 0 0 0-.25-.25Z"/><path fill="#527EB2" d="M13.986 8.836c-.226.075-.17.338-.171.533v8.166c0 .195-.055.459.17.533.118 0 .102-.019.454-.248.352-.23 5.368-4.105 5.368-4.105.09-.073.193-.131.193-.263 0-.131-.104-.19-.193-.263 0 0-5.016-3.876-5.368-4.105-.352-.229-.336-.248-.453-.248Z"/></g><defs><radialGradient id="a" cx="0" cy="0" r="1" gradientTransform="matrix(0 22 -22 0 12 1)" gradientUnits="userSpaceOnUse"><stop stop-color="#777"/><stop offset="1" stop-color="#333"/></radialGradient><clipPath id="b"><rect width="16" height="16" x="4" y="4" fill="#fff" rx=".2"/></clipPath></defs></svg>
